X:51.2
T: Kost ar c'hoad II
R:Breton
S: from Anna Pack, Dec 2022
L: 1/8
M:4/4
G:don't play
P:don't play: 2x (AP)
K:Am
"Am"AB cB "Am"dc "G"B2 | cB "Em"AG "Am"A2A2 | AB cB dc BB | cB AG A2A2||
|:"Am"AB cB "Am"dc "G"(3BcB | AB "F"cd "C"ee/e/ eg | "Dm"e2 dc "Dm"ed "Em"c2 | Bc "Em"AG "Am"A2A2 :|

